elementary-icon-theme/elementary-3.x/actions/64/help-contents.svg

<?xml version="1.0" encoding="UTF-8" standalone="no"?>
<!-- Created with Inkscape (http://www.inkscape.org/) -->

<svg
   xmlns:dc="http://purl.org/dc/elements/1.1/"
   xmlns:cc="http://creativecommons.org/ns#"
   xmlns:rdf="http://www.w3.org/1999/02/22-rdf-syntax-ns#"
   xmlns:svg="http://www.w3.org/2000/svg"
   xmlns="http://www.w3.org/2000/svg"
   xmlns:xlink="http://www.w3.org/1999/xlink"
   xmlns:sodipodi="http://sodipodi.sourceforge.net/DTD/sodipodi-0.dtd"
   xmlns:inkscape="http://www.inkscape.org/namespaces/inkscape"
   width="64px"
   height="64px"
   id="svg3952"
   version="1.1"
   inkscape:version="0.48.0 r9654"
   sodipodi:docname="help-contents.svg">
  <defs
     id="defs3954">
    <linearGradient
       inkscape:collect="always"
       xlink:href="#linearGradient4661"
       id="linearGradient3086"
       gradientUnits="userSpaceOnUse"
       x1="24.693371"
       y1="34.39452"
       x2="24.693371"
       y2="39.173557"
       gradientTransform="matrix(1.3078136,0,0,1.3828045,0.612473,-1.7781895)" />
    <linearGradient
       id="linearGradient4661"
       inkscape:collect="always">
      <stop
         id="stop4663"
         offset="0"
         style="stop-color:#000000;stop-opacity:1;" />
      <stop
         id="stop4665"
         offset="1"
         style="stop-color:#000000;stop-opacity:0;" />
    </linearGradient>
    <linearGradient
       inkscape:collect="always"
       xlink:href="#linearGradient4661"
       id="linearGradient3089"
       gradientUnits="userSpaceOnUse"
       x1="24.693371"
       y1="12.651934"
       x2="24.693371"
       y2="31.394552"
       gradientTransform="matrix(1.3078136,0,0,1.3147381,0.612473,0.7403986)" />
    <linearGradient
       inkscape:collect="always"
       xlink:href="#linearGradient3707-319-631-407-324-3-8"
       id="linearGradient3893"
       x1="30.957644"
       y1="50.736649"
       x2="30.957644"
       y2="7.5589194"
       gradientUnits="userSpaceOnUse" />
    <linearGradient
       id="linearGradient3707-319-631-407-324-3-8">
      <stop
         id="stop3760-7-3"
         style="stop-color:#185f9a;stop-opacity:1;"
         offset="0" />
      <stop
         id="stop3762-8-4"
         style="stop-color:#599ec9;stop-opacity:1;"
         offset="1" />
    </linearGradient>
    <linearGradient
       inkscape:collect="always"
       xlink:href="#linearGradient4011"
       id="linearGradient3096"
       gradientUnits="userSpaceOnUse"
       gradientTransform="matrix(1.3243242,0,0,1.3243242,-62.998438,0.4187932)"
       x1="71.204407"
       y1="6.2375584"
       x2="71.204407"
       y2="44.340794" />
    <linearGradient
       id="linearGradient4011">
      <stop
         id="stop4013"
         style="stop-color:#ffffff;stop-opacity:1;"
         offset="0" />
      <stop
         offset="0.507761"
         style="stop-color:#ffffff;stop-opacity:0.23529412;"
         id="stop4015" />
      <stop
         id="stop4017"
         style="stop-color:#ffffff;stop-opacity:0.15686275;"
         offset="0.83456558" />
      <stop
         id="stop4019"
         style="stop-color:#ffffff;stop-opacity:0.39215687;"
         offset="1" />
    </linearGradient>
    <radialGradient
       inkscape:collect="always"
       xlink:href="#linearGradient2867-449-88-871-390-598-476-591-434-148-57-177-3-8"
       id="radialGradient3099"
       gradientUnits="userSpaceOnUse"
       gradientTransform="matrix(8.5492866e-8,3.3227907,-3.5151162,0,61.702059,-14.994152)"
       cx="5.0450659"
       cy="8.4497671"
       fx="5.0450659"
       fy="8.4497671"
       r="19.99999" />
    <linearGradient
       id="linearGradient2867-449-88-871-390-598-476-591-434-148-57-177-3-8">
      <stop
         id="stop3750-8-9"
         style="stop-color:#90dbec;stop-opacity:1;"
         offset="0" />
      <stop
         id="stop3752-3-2"
         style="stop-color:#55c1ec;stop-opacity:1;"
         offset="0.26238" />
      <stop
         id="stop3754-7-2"
         style="stop-color:#3689e6;stop-opacity:1;"
         offset="0.704952" />
      <stop
         id="stop3756-9-3"
         style="stop-color:#2b63a0;stop-opacity:1;"
         offset="1" />
    </linearGradient>
    <linearGradient
       inkscape:collect="always"
       xlink:href="#linearGradient3707-319-631-407-324-3-8"
       id="linearGradient3101"
       gradientUnits="userSpaceOnUse"
       gradientTransform="matrix(1.3078136,0,0,1.3078136,0.612476,2.6124726)"
       x1="24"
       y1="44"
       x2="24"
       y2="3.8990016" />
    <linearGradient
       id="linearGradient8838">
      <stop
         id="stop8840"
         style="stop-color:#000000;stop-opacity:1"
         offset="0" />
      <stop
         id="stop8842"
         style="stop-color:#000000;stop-opacity:0"
         offset="1" />
    </linearGradient>
    <radialGradient
       r="10.625"
       fy="4.625"
       fx="62.625"
       cy="4.625"
       cx="62.625"
       gradientTransform="matrix(2.9176471,0,0,0.988234,-150.71765,48.92941)"
       gradientUnits="userSpaceOnUse"
       id="radialGradient3950"
       xlink:href="#linearGradient8838"
       inkscape:collect="always" />
  </defs>
  <sodipodi:namedview
     id="base"
     pagecolor="#ffffff"
     bordercolor="#666666"
     borderopacity="1.0"
     inkscape:pageopacity="0.0"
     inkscape:pageshadow="2"
     inkscape:zoom="5.5"
     inkscape:cx="32"
     inkscape:cy="32"
     inkscape:current-layer="layer1"
     showgrid="true"
     inkscape:document-units="px"
     inkscape:grid-bbox="true"
     inkscape:window-width="1280"
     inkscape:window-height="753"
     inkscape:window-x="0"
     inkscape:window-y="24"
     inkscape:window-maximized="1" />
  <metadata
     id="metadata3957">
    <rdf:RDF>
      <cc:Work
         rdf:about="">
        <dc:format>image/svg+xml</dc:format>
        <dc:type
           rdf:resource="http://purl.org/dc/dcmitype/StillImage" />
        <dc:title />
      </cc:Work>
    </rdf:RDF>
  </metadata>
  <g
     id="layer1"
     inkscape:label="Layer 1"
     inkscape:groupmode="layer">
    <path
       inkscape:connector-curvature="0"
       style="opacity:0.3;fill:url(#radialGradient3950);fill-opacity:1;fill-rule:evenodd;stroke:none;stroke-width:0.99999988;marker:none;visibility:visible;display:inline;overflow:visible"
       id="path8836"
       d="m 63,53.499998 c 0,5.79899 -13.879175,10.5 -31,10.5 -17.120825,0 -31,-4.70101 -31,-10.5 0,-5.79899 13.879175,-10.5 31,-10.5 17.120825,0 31,4.70101 31,10.5 l 0,0 z" />
    <path
       inkscape:connector-curvature="0"
       style="color:#000000;fill:url(#radialGradient3099);fill-opacity:1;fill-rule:nonzero;stroke:url(#linearGradient3101);stroke-width:1;stroke-linecap:round;stroke-linejoin:round;stroke-miterlimit:4;stroke-opacity:1;stroke-dasharray:none;stroke-dashoffset:0;marker:none;visibility:visible;display:inline;overflow:visible;enable-background:accumulate"
       id="path2555-7"
       d="M 32.000002,8.5 C 17.929982,8.5 6.5,19.929978 6.5,33.999999 6.5,48.07002 17.929982,59.500004 32.000002,59.5 46.070017,59.5 57.500012,48.07002 57.499999,33.999999 57.499999,19.929978 46.070017,8.5 32.000002,8.5 z" />
    <path
       inkscape:connector-curvature="0"
       style="opacity:0.5;color:#000000;fill:none;stroke:url(#linearGradient3096);stroke-width:1;stroke-linecap:round;stroke-linejoin:round;stroke-miterlimit:4;stroke-opacity:1;stroke-dasharray:none;stroke-dashoffset:0;marker:none;visibility:visible;display:inline;overflow:visible;enable-background:accumulate"
       id="path8655-6"
       d="m 56.499999,33.999132 c 0,13.531412 -10.969831,24.500867 -24.49969,24.500867 -13.531097,0 -24.5003091,-10.969579 -24.5003091,-24.500867 0,-13.530787 10.9692121,-24.4991302 24.5003091,-24.4991302 13.529859,0 24.49969,10.9683432 24.49969,24.4991302 l 0,0 z" />
    <path
       inkscape:connector-curvature="0"
       style="font-size:72px;font-style:normal;font-weight:bold;fill:url(#linearGradient3893);fill-opacity:1;fill-rule:nonzero;stroke:none;stroke-width:1px;marker:none;visibility:visible;display:inline;overflow:visible;enable-background:accumulate;font-family:Standard Symbols L"
       id="path2502"
       d="m 33.138048,40.752331 c -0.0826,-3.084535 0.577967,-6.07896 3.363586,-8.200026 2.942325,-2.398788 5.776019,-5.400001 5.476558,-8.937751 -0.06539,-3.411839 -3.865302,-6.085387 -7.959432,-6.469797 -4.605233,-0.667427 -10.177536,0.983039 -11.720718,4.745539 -0.782668,1.829952 -0.05688,5.113101 2.569744,5.113101 1.536315,0 2.241952,-1.038224 2.357877,-1.987952 0.08771,-0.718595 -0.194293,-1.360295 -0.360832,-1.953859 -0.189763,-0.676329 0.620317,-1.987124 1.502604,-2.521194 0.737253,-0.446279 1.508608,-0.595925 1.622309,-0.624514 2.647681,-0.665673 5.287038,0.804711 6.388224,2.59435 1.101187,1.789636 -0.110885,4.50417 -1.853569,7.143946 -1.742683,2.63978 -3.612894,5.638028 -3.605422,8.822662 0,1.212392 -0.103258,1.624269 -0.02989,2.114771 0.05862,0.391898 1.299033,0.34454 2.248962,0.160724 z m -1.208319,4.151619 c -2.531602,-0.143775 -4.283821,2.858613 -2.76296,4.771541 1.358201,2.112064 5.166282,1.590684 5.818986,-0.801016 0.678576,-1.859853 -0.954427,-4.001572 -3.056025,-3.970527 l -1e-6,2e-6 z" />
    <path
       inkscape:connector-curvature="0"
       style="font-size:72px;font-style:normal;font-weight:bold;fill:#ffffff;fill-opacity:1;stroke:none;font-family:Standard Symbols L"
       id="path3298"
       d="m 33.138048,41.752331 c -0.0826,-3.084535 0.577967,-6.07896 3.363586,-8.200026 2.942325,-2.398788 5.776019,-5.400001 5.476558,-8.937751 -0.06539,-3.411839 -3.865302,-6.085387 -7.959432,-6.469797 -4.605233,-0.667427 -10.177536,0.983039 -11.720718,4.745539 -0.782668,1.829952 -0.05688,5.113101 2.569744,5.113101 1.536315,0 2.241952,-1.038224 2.357877,-1.987952 0.08771,-0.718595 -0.194293,-1.360295 -0.360832,-1.953859 -0.189763,-0.676329 0.620317,-1.987124 1.502604,-2.521194 0.737253,-0.446279 1.508608,-0.595925 1.622309,-0.624514 2.647681,-0.665673 5.287038,0.804711 6.388224,2.59435 1.101187,1.789636 -0.110885,4.50417 -1.853569,7.143946 -1.742683,2.63978 -3.612894,5.638028 -3.605422,8.822662 0,1.212392 -0.103258,1.624269 -0.02989,2.114771 0.05862,0.391898 1.299033,0.34454 2.248962,0.160724 z m -1.208319,4.151619 c -2.531602,-0.143775 -4.283821,2.858613 -2.76296,4.771541 1.358201,2.112064 5.166282,1.590684 5.818986,-0.801016 0.678576,-1.859853 -0.954427,-4.001572 -3.056025,-3.970527 l -1e-6,2e-6 z" />
    <path
       style="font-size:72px;font-style:normal;font-weight:bold;opacity:0.1;fill:none;stroke:url(#linearGradient3089);stroke-width:1;stroke-opacity:1;font-family:Standard Symbols L"
       d="m 37.342351,23.440605 c 0.945106,2.338092 -0.423373,4.786922 -1.645493,6.73393 -1.987826,2.978544 -4.391349,6.157797 -4.190508,9.9416 -0.208935,0.891607 0.162893,1.308456 1.065818,0.970291 m 9.168665,-15.38418 c 0.326378,-1.914815 -0.559391,-3.869775 -2.130635,-4.976166 -2.566266,-1.982441 -5.989693,-2.370021 -9.122358,-2.154545 -2.925923,0.317493 -6.151394,1.34004 -7.784784,3.980841 -0.847446,1.456254 -0.626491,3.863887 1.077963,4.580091"
       id="path4678"
       inkscape:connector-curvature="0"
       sodipodi:nodetypes="ccccccccc" />
    <path
       inkscape:connector-curvature="0"
       style="font-size:72px;font-style:normal;font-weight:bold;opacity:0.1;fill:none;stroke:url(#linearGradient3086);stroke-width:1;stroke-opacity:1;font-family:Standard Symbols L"
       d="m 31.877392,46.403907 c -1.777911,-0.202731 -3.569201,2.070116 -2.476813,3.785377 1.086846,1.831471 4.149563,1.644218 5.03724,-0.286445 0.707144,-1.747359 -0.873202,-3.596142 -2.560427,-3.498932 z"
       id="path4669" />
  </g>
</svg>

<?xml version="1.0" encoding="UTF-8" standalone="no"?>
<!-- Created with Inkscape (http://www.inkscape.org/) -->
<svg
   xmlns:svg="http://www.w3.org/2000/svg"
   xmlns="http://www.w3.org/2000/svg"
   xmlns:xlink="http://www.w3.org/1999/xlink"
   version="1.0"
   width="64"
   height="64"
   id="svg2504">
  <defs
     id="defs2506">
    <linearGradient
       id="linearGradient8838">
      <stop
         id="stop8840"
         style="stop-color:#000000;stop-opacity:1"
         offset="0" />
      <stop
         id="stop8842"
         style="stop-color:#000000;stop-opacity:0"
         offset="1" />
    </linearGradient>
    <radialGradient
       cx="62.625"
       cy="4.625"
       r="10.625"
       fx="62.625"
       fy="4.625"
       id="radialGradient2500"
       xlink:href="#linearGradient8838"
       gradientUnits="userSpaceOnUse"
       gradientTransform="matrix(2.9176471,0,0,0.988234,-150.71765,48.92941)" />
    <linearGradient
       id="linearGradient2490-182-124">
      <stop
         id="stop2788"
         style="stop-color:#1f4b6a;stop-opacity:1"
         offset="0" />
      <stop
         id="stop2790"
         style="stop-color:#4083c2;stop-opacity:1"
         offset="1" />
    </linearGradient>
    <linearGradient
       x1="18.379412"
       y1="44.980297"
       x2="18.379412"
       y2="3.0816143"
       id="linearGradient2497"
       xlink:href="#linearGradient2490-182-124"
       gradientUnits="userSpaceOnUse"
       gradientTransform="matrix(1.2533672,0,0,1.2533674,1.919184,3.9191687)" />
    <linearGradient
       id="linearGradient3242-187-536">
      <stop
         id="stop2778"
         style="stop-color:#8badea;stop-opacity:1"
         offset="0" />
      <stop
         id="stop2780"
         style="stop-color:#6396cd;stop-opacity:1"
         offset="0.26238" />
      <stop
         id="stop2782"
         style="stop-color:#3b7caf;stop-opacity:1"
         offset="0.66093999" />
      <stop
         id="stop2784"
         style="stop-color:#194c70;stop-opacity:1"
         offset="1" />
    </linearGradient>
    <radialGradient
       cx="23.895569"
       cy="3.9900031"
       r="20.397499"
       fx="23.895569"
       fy="3.9900031"
       id="radialGradient2495"
       xlink:href="#linearGradient3242-187-536"
       gradientUnits="userSpaceOnUse"
       gradientTransform="matrix(0,2.9913581,-3.9485396,0,47.754682,-64.903143)" />
    <linearGradient
       id="linearGradient4873">
      <stop
         id="stop4875"
         style="stop-color:#ffffff;stop-opacity:1"
         offset="0" />
      <stop
         id="stop4877"
         style="stop-color:#ffffff;stop-opacity:0"
         offset="1" />
    </linearGradient>
    <linearGradient
       x1="63.397362"
       y1="-12.489107"
       x2="63.397362"
       y2="5.4675598"
       id="linearGradient2492"
       xlink:href="#linearGradient4873"
       gradientUnits="userSpaceOnUse"
       gradientTransform="matrix(2.8014404,0,0,2.8013767,-142.25072,43.835172)" />
  </defs>
  <g
     id="layer1">
    <path
       d="M 63,53.499998 C 63,59.298988 49.120825,63.999998 32,63.999998 C 14.879175,63.999998 1,59.298988 1,53.499998 C 1,47.701008 14.879175,42.999998 32,42.999998 C 49.120825,42.999998 63,47.701008 63,53.499998 L 63,53.499998 z"
       id="path8836"
       style="opacity:0.3;fill:url(#radialGradient2500);fill-opacity:1;fill-rule:evenodd;stroke:none;stroke-width:0.99999988;stroke-linecap:butt;stroke-linejoin:round;marker:none;marker-start:none;marker-mid:none;marker-end:none;stroke-miterlimit:4;stroke-dasharray:none;stroke-dashoffset:0;stroke-opacity:1;visibility:visible;display:inline;overflow:visible" />
    <path
       d="M 32.000001,8.501793 C 17.93098,8.501793 6.5018092,19.930961 6.5018092,33.999983 C 6.5018092,48.069004 17.93098,59.498177 32.000001,59.498173 C 46.069017,59.498173 57.498201,48.069004 57.498188,33.999983 C 57.498188,19.930961 46.069017,8.501793 32.000001,8.501793 z"
       id="path2555"
       style="fill:url(#radialGradient2495);fill-opacity:1;stroke:url(#linearGradient2497);stroke-width:1;stroke-linecap:round;stroke-linejoin:round;stroke-miterlimit:4;stroke-dasharray:none;stroke-dashoffset:0;stroke-opacity:1" />
    <path
       d="M 56.499998,33.999131 C 56.499998,47.530543 45.530168,58.499998 32.000309,58.499998 C 18.469211,58.499998 7.4999998,47.530419 7.4999998,33.999131 C 7.4999998,20.468344 18.469211,9.5000007 32.000309,9.5000007 C 45.530168,9.5000007 56.499998,20.468344 56.499998,33.999131 L 56.499998,33.999131 z"
       id="path8655"
       style="opacity:0.4;fill:none;fill-opacity:1;fill-rule:nonzero;stroke:url(#linearGradient2492);stroke-width:0.99999994;stroke-miterlimit:4;stroke-dasharray:none;stroke-opacity:1" />
    <path
       d="M 33.138048,40.752331 C 33.055449,37.667796 33.716015,34.673371 36.501634,32.552305 C 39.443959,30.153517 42.277653,27.152304 41.978192,23.614554 C 41.912803,20.202715 38.11289,17.529167 34.01876,17.144757 C 29.413527,16.47733 23.841224,18.127796 22.298042,21.890296 C 21.515374,23.720248 22.241163,27.003397 24.867786,27.003397 C 26.404101,27.003397 27.109738,25.965173 27.225663,25.015445 C 27.313373,24.29685 27.03137,23.65515 26.864831,23.061586 C 26.675068,22.385257 27.485148,21.074462 28.367435,20.540392 C 29.104688,20.094113 29.876043,19.944467 29.989744,19.915878 C 32.637425,19.250205 35.276782,20.720589 36.377968,22.510228 C 37.479155,24.299864 36.267083,27.014398 34.524399,29.654174 C 32.781716,32.293954 30.911505,35.292202 30.918977,38.476836 C 30.918977,39.689228 30.815719,40.101105 30.889086,40.591607 C 30.947705,40.983505 32.188119,40.936147 33.138048,40.752331 z M 31.929729,44.90395 C 29.398127,44.760175 27.645908,47.762563 29.166769,49.675491 C 30.52497,51.787555 34.333051,51.266175 34.985755,48.874475 C 35.664331,47.014622 34.031328,44.872903 31.92973,44.903948 L 31.929729,44.90395 z"
       id="path2502"
       style="font-size:72px;font-style:normal;font-weight:bold;opacity:1;fill:#1f4b6b;fill-opacity:1;fill-rule:nonzero;stroke:none;stroke-width:1px;stroke-linecap:butt;stroke-linejoin:miter;marker:none;marker-start:none;marker-mid:none;marker-end:none;stroke-miterlimit:4;stroke-dasharray:none;stroke-dashoffset:0;stroke-opacity:1;visibility:visible;display:inline;overflow:visible;enable-background:accumulate;font-family:Standard Symbols L" />
    <path
       d="M 33.138048,41.752331 C 33.055449,38.667796 33.716015,35.673371 36.501634,33.552305 C 39.443959,31.153517 42.277653,28.152304 41.978192,24.614554 C 41.912803,21.202715 38.11289,18.529167 34.01876,18.144757 C 29.413527,17.47733 23.841224,19.127796 22.298042,22.890296 C 21.515374,24.720248 22.241163,28.003397 24.867786,28.003397 C 26.404101,28.003397 27.109738,26.965173 27.225663,26.015445 C 27.313373,25.29685 27.03137,24.65515 26.864831,24.061586 C 26.675068,23.385257 27.485148,22.074462 28.367435,21.540392 C 29.104688,21.094113 29.876043,20.944467 29.989744,20.915878 C 32.637425,20.250205 35.276782,21.720589 36.377968,23.510228 C 37.479155,25.299864 36.267083,28.014398 34.524399,30.654174 C 32.781716,33.293954 30.911505,36.292202 30.918977,39.476836 C 30.918977,40.689228 30.815719,41.101105 30.889086,41.591607 C 30.947705,41.983505 32.188119,41.936147 33.138048,41.752331 z M 31.929729,45.90395 C 29.398127,45.760175 27.645908,48.762563 29.166769,50.675491 C 30.52497,52.787555 34.333051,52.266175 34.985755,49.874475 C 35.664331,48.014622 34.031328,45.872903 31.92973,45.903948 L 31.929729,45.90395 z"
       id="path3298"
       style="font-size:72px;font-style:normal;font-weight:bold;fill:#ffffff;fill-opacity:1;stroke:none;stroke-width:0.75;stroke-linecap:round;stroke-linejoin:round;stroke-miterlimit:4;stroke-dasharray:none;stroke-opacity:1;font-family:Standard Symbols L" />
  </g>
</svg>
